svgs/solid/floppy-disk.svg

<svg xmlns="http://www.w3.org/2000/svg" viewBox="0 0 448 512"><!-- Font Awesome Pro 6.0.0-alpha2 by @fontawesome - https://fontawesome.com License - https://fontawesome.com/license (Commercial License) --><path d="M433.938 129.938L350.062 46.062C342.328 38.328 327.051 32 316.113 32H64C28.654 32 0 60.652 0 96V416C0 451.346 28.654 480 64 480H384C419.346 480 448 451.346 448 416V163.887C448 152.949 441.672 137.672 433.938 129.938ZM224 416C188.656 416 160 387.344 160 352S188.656 288 224 288S288 316.656 288 352S259.344 416 224 416ZM320 208C320 216.836 312.836 224 304 224H80C71.164 224 64 216.836 64 208V112C64 103.162 71.164 96 80 96H304C312.836 96 320 103.162 320 112V208Z"/></svg>

<svg xmlns="http://www.w3.org/2000/svg" viewBox="0 0 448 512"><!--! Font Awesome Pro 6.0.0-alpha3 by @fontawesome - https://fontawesome.com License - https://fontawesome.com/license (Commercial License) --><path d="M433.1 129.1l-83.9-83.9C342.3 38.32 327.1 32 316.1 32H64C28.65 32 0 60.65 0 96v320c0 35.35 28.65 64 64 64h320c35.35 0 64-28.65 64-64V163.9C448 152.9 441.7 137.7 433.1 129.1zM224 416c-35.34 0-64-28.66-64-64s28.66-64 64-64s64 28.66 64 64S259.3 416 224 416zM320 208C320 216.8 312.8 224 304 224h-224C71.16 224 64 216.8 64 208v-96C64 103.2 71.16 96 80 96h224C312.8 96 320 103.2 320 112V208z"/></svg>
